X:1
T:Fantasy Pieces for Oboe and Piano - Romance
T:Fantasy Pieces for Oboe and Piano
T:Romance
T:Carl Nielsen
C:Carl Nielsen
%%score 1 { ( 2 3 5 ) | ( 4 6 ) }
L:1/8
Q:1/4=80
M:4/4
K:Bb
V:1 treble nm="Oboe" snm="Ob."
V:2 treble nm="Piano" snm="Pno."
V:3 treble 
V:5 treble 
V:4 bass 
V:6 bass 
V:1
 z8 | z8 | z2 d2 G3 A | Bdga b3 a | _a2 d2- def^f | g2 c2 z2 g2 | ^fc e4 d^c | ^c2 d2 z2 d2 | %8
 ^cG B4 A^G | ^G2 A2 z4 | z2 d2 G3 A | Bdga b3 a | _a2 d2- def^f | g2 c4 cd | edc=B cde_A | %15
 GBcd eg b2- | bgfe d4 | G2 z2 z B2 B | B2 G2 z B2 B | B2 G2 z B2 B | B2 cd A3 G/^F/ | A4 z _e2 e | %22
 e2 c2 z e2 e | e2 c2 z e2 e | =e2 c2 =B3 A/^G/ | =B6 =b2 | c'2 g2 e3 d/c/ | c2 B2 z2 d2 | %28
 d2 A2 ^F3 =E/D/ | d3 B/A/ d3 B/A/ | de=ef gbgf | eged ceBA | d4- decB | cdBA BcAG | D8- | D8- | %36
 D8- | D8- | D2 z2 z4 | z8 | z8 | z8 | z2 d2 G3 A | Bdga b3 a | _a2 d2- def^f | g2 c2 z2 g2 | %46
 ^fc e4 d^c | ^c2 d2 z2 d2 | ^cG B4 A^G | ^G2 A2 z4 | z2 d2 G3 A | Bdga b3 _a | _a2 g2 z b2 a | %53
 _a2 g4 g2 | _abc'b agab | gfef d3 g | _abc'b agab | gfef d3 d | g2 z2 z2 d2 | G4 z2 d2 | %60
 G4 z2 d2- | dcBA B2 A2 | G4 z2 d2 | G4 z2 d2 | G8- | G8 |] %66
V:2
 z2 [DGB]2 A4 | z2 [DGB]2 [^C=EA]2 !arpeggio![=CDAd]2 | [B,DG]2 [DGB]2 [^CGA]4 | z2 B2 d3 c | %4
 z2 c2 =B2 _A2 | z2 c2 _A2 G2 | z2 B2 G2 ^F2 | z2 d2 _A2 G2 | z2 F2 D2 ^C2 | z2 A2 D2 d2 | %10
 GD-cB z ^C-BA | z DBc z Edc | z D=Bc B2 _A2 | z =Bc_A ^FG_B=A | [_A,E_A]8 | G_AGF B2 G^F | %16
 G2 AG ^F B2 A | z [B,DG]2 [DGB] z [D_AB]2 [DAB] | z [^CGB]2 [CGB] z [C_AB]2 [CAB] | %19
 z [^CGB]2 [CGB] z [CGB]2 [CGB] | z [DGB]2 [DGB] z [=EGA]2 [^CGA] | %21
 (3z DA (3d^E^F (3z _EG (3[Be]FG | (3z EB (3_Ae[_GA] (3z EB (3=Ae[GA] | %23
 (3z EB (3_Ae[_GA] (3z EB (3=Ae[GA] | (3z =Ec (3=B=e[EA] (3z =B,^G (3^FB=B, | %25
 (3z =B,^G (3^F=BB, (3z B,F (3=FBB, | (3z CG (3EcC (3z CG (3EcC | g2 d2 B3 A/G/ | G2 ^F2 z2 A2 | %29
 G2 ^F2 =E2 _E2 | [^F,D]2 z2 z4 | z8 | z8 | z2 d2- decB | cdBA _A2 G2 | ^F2 z2 z4 | z8 | %37
[K:bass] z8 | z DC_A, C2 [G,=A,E]2 | [^F,A,D]DC_A, C2 [G,=A,E]2 | (3[^F,A,D]2 D2 C2 (3:2:2_A,2 C4 | %41
 (3:2:2[G,A,E]4 [^F,A,D]2 z2 D2 |[K:treble] G,BGD G4- | GBGD- [Dd]4- | dc_AD A2 c2- | ccGC G2 c2 | %46
 z BA^F- [EF]4 | z AGE D2 G2 | z F=E^C- [B,C]4 | z EDA, (3D^GA (3cBA | (3BAG (3ABc (3Bc^c (3dcA | %51
 (3edB (3f=eB (3agB (3b_aB | (3z [_ab]e (3BGE (3z [ab]f (3d[_AB]F | %53
 (3z [_ab]e (3B[EG]B, (3z [gb]=e (3c[GB]C | [CF_A]8 | G4 ^F2 [B,G]2 | [_A,F_A]8 | G4 ^F4 | %58
 [B,DG]2 [B,DG]4 [B,DG]2- | [B,DG]2 [B,_DG]4 [B,=DG]2- | [B,DG]2 [B,DG]4 [=B,FG]2- | %61
 [B,FG]2 [CEG]4 [CD^F]2 | z2 [B,DG]2 [DFG]4- | [DFG]2 [^C=EG]2 [=C_EG]4- | [CEG]4 [B,DG]4- | %65
 [B,DG]8 |] %66
V:3
 z2 z2 [^C=E]2 D2 | x8 | x8 | z2 D4 D2 | z4 D4 | z4 C4 | z4 C4 | z4 D4 | z4 G,4 | x8 | %10
 z D D2 z ^C C2 | z D- D2 z E- E2 | z D- D2- D_D C2 | z4 C4 | x8 | E2 D2 z4 | B,4 [CD]4 | x8 | x8 | %19
 x8 | x8 | x8 | x8 | x8 | x8 | x8 | x8 | x8 | [A,D]4 z4 | [A,D]4 G,4 | x8 | x8 | x8 | x8 | x8 | %35
 x8 | x8 |[K:bass] x8 | x8 | x8 | x8 | x8 |[K:treble] x8 | x8 | D2 C2- [C_A]4 | [CG]4 [CG]4 | x8 | %47
 z4 D4 | x8 | x8 | x8 | x8 | z2 B2 z4 | x4 z4 | x8 | C2 E2 [CD]2 D=E | x8 | C2 E2 [CD]4 | x8 | x8 | %60
 x8 | x8 | x8 | x8 | x8 | x8 |] %66
V:4
 [G,,G,]6 [^F,,^F,]2 | [G,,G,]6 [^F,,^F,]2 | [G,,G,]6 [G,,,G,,]2 | [G,,G,]4 [=E,,=E,]2 [^F,,^F,]2 | %4
 [=F,,=F,]8 | [=E,,=E,]4- [E,,E,]3 [_E,,_E,] | [D,,D,]4- [D,,D,]3 [C,,C,] | %7
 [=B,,,=B,,]4- [B,,,B,,]3 [_B,,,_B,,] | [A,,,A,,]4- [A,,,A,,]3 [G,,,G,,] | [^F,,,^F,,]6 D2 | %10
 G,4- [G,,-G,]4 | [G,,G,]4 [^F,,^F,]4 | [F,,F,]4- [F,,F,]3 [_F,,_F,] | [E,,E,]8 | %14
 [C,,C,]6 [_C,,_C,]2 | [B,,,B,,]3 [_A,,,_A,,] [G,,,G,,]2 E,,2 | D,,4- [D,,B,,]4 | [G,,G,]4 F,4 | %18
 =E,4 F,4 | =E,4 _E,4 | D,4 ^C,2 =E,2 | ^E,^F,A,D, [_D,,_D,]4 | [C,,C,]4 [_D,,_D,]4 | %23
 [C,,C,]4 [_C,,_C,]4 | [C,,C,]2 [A,,,A,,]2 [=B,,,=B,,]2 [^D,,^D,]2 | [D,,D,]4 [_D,,_D,]4 | %26
 C,,G,,C,E, G,C,B,,_A,, | (3z G,,D, (3G,B,C (3DB,A, (3G,F,E, | (3z D,,A,, (3A,,D,A,, D,2 z2 | %29
 (3D,,A,,D, (3A,,D,A,, D,2 z2 | (3D,,A,,D, (3A,,D,A,, D,2 z2 | (3D,,A,,D, (3A,,D,A,, D,2 z2 | %32
 z C=B,_B, A,2 z2 | z8 | z2 D2- DECB, | CDB,A, B,CA,G, | A,B,G,F, G,A,F,E, | F,G,E,D, E,F,D,^C, | %38
 [D,,D,]4- [D,,D,][F,,F,][D,,D,][^C,,^C,] | [D,,D,]4- [D,,D,][F,,F,][D,,D,][^C,,^C,] | %40
 [D,,D,]4- (3:2:2[D,,D,]4 [F,,F,]2 | (3[D,,D,]2 [^C,,^C,]2 [D,,D,]2 z2 D,2 | G,,2 B,2- B,D,G,,D, | %43
 G,,2 B,2- B,D,B,D, | _A,2 F,2- F,D,F,D, | F,C, E,2- E,-C,E,C, | D,4- D,A,,D,C, | %47
 =B,,4- B,,G,,_B,,G,, | A,,4- A,,=E,,G,,E,, | [^F,,,^F,,]4- [F,,,F,,] z D2- | [G,D]6 [G,,-D,]2 | %51
 G,2 B,2 G,2 F,2 | E,2 B,,E, D,2 B,,D, | _D,2 B,,D, C,2 G,,C, | [F,,F,]8 | %55
 [E,,E,]2 [C,,C,]2 [A,,,A,,]2 [G,,,G,,]2 | [F,,,F,,]8 | [E,,E,]2 C,2 A,,2 D,2 | G,,4 [^F,,^F,]4 | %59
 [F,,F,]4 [=E,,=E,]4 | [E,,E,]4 [D,,D,]4 | [C,,C,]4 [D,,D,]4 | G,,4 G,,,4 | G,,4 G,,,4 | %64
 G,,2 D,2 G,,2 D,2 | [G,,D,]8 |] %66
V:5
 x8 | x8 | x8 | x8 | x8 | x8 | x8 | x8 | x8 | x8 | x8 | x8 | x8 | x8 | x8 | B,4 [B,E]4 | x8 | x8 | %18
 x8 | x8 | x8 | x8 | x8 | x8 | x8 | x8 | x8 | x8 | x8 | x8 | x8 | x8 | x8 | x8 | x8 | x8 | x8 | %37
[K:bass] x8 | x8 | x8 | x8 | x8 |[K:treble] x8 | x8 | x8 | x8 | x8 | x8 | x8 | x8 | x8 | x8 | x8 | %53
 x8 | x8 | x8 | x8 | x8 | x8 | x8 | x8 | x8 | x8 | x8 | x8 | x8 |] %66
V:6
 x8 | x8 | x8 | x8 | x8 | x8 | x8 | x8 | x8 | x8 | x8 | x8 | x8 | x8 | x8 | x8 | x8 | x8 | x8 | %19
 x8 | x8 | x8 | x8 | x8 | x8 | x8 | x8 | x8 | (3:2:2z D,,2- D,,4 z2 | D,,2- D,,4 z2 | D,,2 z4 z2 | %31
 D,,2 z4 z2 | x8 | x8 | x8 | x8 | x8 | x8 | x8 | x8 | x8 | x8 | G,,8 | G,,6 ^F,,2 | F,,8 | %45
 F,,2 E,,6 | D,,8 | G,,,8 | A,,,6 G,,,2 | x8 | x8 | G,,4 D4 | E,,4 D,,4 | _D,,4 C,,4 | x8 | x8 | %56
 x8 | x8 | x8 | x8 | x8 | x8 | x8 | x8 | x8 | x8 |] %66

